X:1
T:The Coming of His Feet
T:The Coming of His Feet
T:George Coles Stebbins
T:Lyman Whitney Allen, 1914
T:Public Domain Courtesy of the Cyber Hymnal™
T:Public Domain Courtesy of the Cyber Hymnal™
C:George Coles Stebbins
Z:Public Domain
Z:Courtesy of the Cyber Hymnal™
%%score 1 ( 2 3 )
L:1/8
Q:1/4=100
M:4/4
K:C
V:1 treble 
V:2 bass 
V:3 bass 
V:1
 [CE][DF] | [EG][EG] [EG]>[EG] [EG][EG][CF][CE] | [CA][CA] [FA]>[FA] [EG]2 [CE][DF] | %3
w: 1.~In the|crim- son of the morn- ing, In the|white- ness of the noon, In the|
w: 2.~I have|heard His wea- ry foot- steps By the|Gal- i- le- an sea, On the|
w: 3.~Down the|min- ster aisles of splen- dor, From be-|tween the cher- u- bim, Thro’ the|
w: 4.~Comes He|san- daled not with sil- ver, Gild- ed|not with wov- en gold, Weight- ed|
w: 5.~He is|com- ing, O my spir- it, With His|ev- er- last- ing peace, With His|
 [EG][EA][EB][Ec] [^Fc][FA] [FB]>[Fc] | [Fd]6 [Ec][Fd] | [Ge][Ge] [Ge]>[Fd] [Ec][Ec][FB][Gc] | %6
w: am- ber glo- ry of the day’s re-|treat; In the|mid- night robed in dark- ness, Or the|
w: Tem- ple’s mar- ble pave- ment, on the|street; Worn with|weight of sor- row, fal- tering Up the|
w: won- dering throngs with mo- tion strong and|fleet, Sounds His|vic- tor tread, with mu- sic, Of re-|
w: not with shimm- ering gems and o- dors|sweet; But white-|winged and shod with glo- ry, In the|
w: bless- ed- ness im- mor- tal and com-|plete; He is|com- ing, O my spir- it, And His|
 [Fd][Fd] [Fd]>[Fc] [FA]2 [FA]2 | [EG][EA][EB][Ec] [FA]!fermata![Acf] [FB]>[Ec] | [Ec]6 |] %9
w: gleam- ing of the moon, I|list- en for the com- ing of His|feet.|
w: slopes of Cal- va- ry, The|sor- row of the com- ing of His|feet.|
w: demp- tion’s chor- al hymn, The|mu- sic of the com- ing of His|feet.|
w: Ta- bor- light of old, The|glo- ry of the com- ing of His|feet.|
w: com- ing brings re- lease, I|list- en for the com- ing of His|feet.|
V:2
 [C,G,][C,G,] | [C,C][C,C] [C,C]>[C,C] [C,C][C,C][C,A,][C,G,] | %2
 F,[F,A,] [F,C]>[F,C] [C,C]2 [C,G,][C,G,] | [C,C][C,C][C,C][C,C] [D,A,][D,C] [D,B,]>[D,A,] | %4
 [G,B,]6 G,G, | [C,C][C,C] [C,C]>[C,G,] [C,G,][C,G,][D,G,][E,C] | %6
 [F,A,][F,A,] [F,A,]>[F,A,] [F,C]2 [F,C]2 | [G,C][G,C][G,C][A,C] [F,C][F,C] G,>[C,G,] | [C,G,]6 |] %9
V:3
 x2 | x8 | F, x7 | x8 | x6 G,G, | x8 | x8 | x6 G,3/2 x/ | x6 |] %9

